assets/icons/logo-amazonpay.svg

<?xml version="1.0" standalone="no"?>
<!-- Generator: Gravit.io -->
<svg xmlns="http://www.w3.org/2000/svg" xmlns:xlink="http://www.w3.org/1999/xlink" viewBox="0 0 176.515 33.863" width="176.515" height="33.863">
<path d=" M 69.652 26.489 C 63.129 31.303 53.672 33.863 45.528 33.863 C 34.115 33.863 23.837 29.644 16.059 22.621 C 15.449 22.069 15.993 21.316 16.727 21.743 C 25.118 26.626 35.496 29.567 46.213 29.567 C 53.443 29.567 61.391 28.066 68.704 24.964 C 69.807 24.497 70.732 25.691 69.652 26.489 Z " fill-rule="evenodd" />
<path d=" M 72.367 23.389 C 71.532 22.321 66.852 22.883 64.749 23.135 C 64.112 23.212 64.013 22.655 64.587 22.252 C 68.321 19.629 74.44 20.386 75.151 21.265 C 75.867 22.15 74.962 28.285 71.464 31.212 C 70.925 31.662 70.413 31.422 70.652 30.828 C 71.44 28.861 73.202 24.459 72.367 23.389 Z " fill-rule="evenodd" />
<path d=" M 64.897 3.724 L 64.897 1.176 C 64.899 0.788 65.191 0.53 65.543 0.531 L 76.965 0.53 C 77.33 0.53 77.624 0.795 77.624 1.173 L 77.624 3.358 C 77.62 3.725 77.311 4.203 76.764 4.962 L 70.847 13.41 C 73.043 13.359 75.366 13.688 77.362 14.809 C 77.812 15.062 77.933 15.437 77.968 15.804 L 77.968 18.523 C 77.968 18.898 77.558 19.331 77.126 19.106 C 73.611 17.264 68.946 17.063 65.058 19.128 C 64.661 19.34 64.246 18.912 64.246 18.537 L 64.246 15.952 C 64.246 15.539 64.254 14.831 64.671 14.201 L 71.525 4.367 L 65.557 4.366 C 65.192 4.366 64.899 4.106 64.897 3.724 Z " fill-rule="evenodd" />
<path d=" M 23.233 19.641 L 19.758 19.641 C 19.427 19.62 19.163 19.372 19.136 19.054 L 19.139 1.219 C 19.139 0.863 19.439 0.578 19.81 0.578 L 23.046 0.577 C 23.384 0.594 23.656 0.85 23.677 1.176 L 23.677 3.504 L 23.743 3.504 C 24.586 1.252 26.175 0.201 28.316 0.201 C 30.489 0.201 31.852 1.252 32.825 3.504 C 33.668 1.252 35.582 0.201 37.625 0.201 C 39.085 0.201 40.674 0.802 41.647 2.153 C 42.75 3.655 42.524 5.831 42.524 7.745 L 42.52 19 C 42.52 19.355 42.221 19.641 41.85 19.641 L 38.38 19.641 C 38.03 19.619 37.756 19.343 37.756 19.001 L 37.755 9.546 C 37.755 8.796 37.82 6.92 37.657 6.207 C 37.398 5.005 36.62 4.667 35.615 4.667 C 34.771 4.667 33.895 5.23 33.538 6.13 C 33.181 7.032 33.214 8.532 33.214 9.546 L 33.214 19 C 33.214 19.355 32.914 19.641 32.544 19.641 L 29.073 19.641 C 28.724 19.619 28.449 19.343 28.449 19.001 L 28.445 9.546 C 28.445 7.557 28.77 4.631 26.305 4.631 C 23.807 4.631 23.905 7.482 23.905 9.546 L 23.903 19 C 23.903 19.355 23.603 19.641 23.233 19.641 Z " fill-rule="evenodd" />
<path d=" M 87.488 3.842 C 84.926 3.842 84.764 7.331 84.764 9.508 C 84.764 11.685 84.732 16.339 87.457 16.339 C 90.149 16.339 90.279 12.586 90.279 10.297 C 90.279 8.796 90.213 6.994 89.759 5.568 C 89.37 4.329 88.591 3.842 87.488 3.842 Z  M 87.457 0.201 C 92.614 0.201 95.403 4.631 95.403 10.26 C 95.403 15.7 92.322 20.017 87.457 20.017 C 82.396 20.017 79.639 15.588 79.639 10.072 C 79.639 4.517 82.428 0.201 87.457 0.201 Z " fill-rule="evenodd" />
<path d=" M 102.092 19.641 L 98.629 19.641 C 98.282 19.619 98.006 19.343 98.006 19.001 L 98 1.16 C 98.03 0.833 98.318 0.578 98.668 0.578 L 101.891 0.577 C 102.195 0.593 102.445 0.799 102.509 1.076 L 102.509 3.804 L 102.574 3.804 C 103.548 1.364 104.909 0.201 107.309 0.201 C 108.866 0.201 110.391 0.764 111.364 2.303 C 112.272 3.729 112.272 6.13 112.272 7.857 L 112.272 19.08 C 112.234 19.396 111.95 19.641 111.606 19.641 L 108.123 19.641 C 107.801 19.621 107.542 19.384 107.504 19.08 L 107.504 9.397 C 107.504 7.445 107.732 4.592 105.331 4.592 C 104.488 4.592 103.709 5.155 103.32 6.018 C 102.833 7.107 102.768 8.195 102.768 9.397 L 102.768 19 C 102.762 19.355 102.462 19.641 102.092 19.641 Z " fill-rule="evenodd"/>
<path d=" M 59.294 19.597 C 59.065 19.803 58.734 19.817 58.474 19.678 C 57.32 18.719 57.113 18.276 56.482 17.362 C 54.575 19.305 53.224 19.888 50.753 19.888 C 47.828 19.888 45.552 18.082 45.552 14.472 C 45.552 11.651 47.081 9.733 49.258 8.793 C 51.143 7.965 53.776 7.815 55.792 7.589 L 55.792 7.138 C 55.792 6.309 55.857 5.333 55.369 4.618 C 54.946 3.978 54.134 3.715 53.419 3.715 C 52.093 3.715 50.916 4.394 50.626 5.801 C 50.565 6.114 50.337 6.425 50.023 6.441 L 46.654 6.076 C 46.37 6.011 46.054 5.783 46.135 5.349 C 46.9 1.32 50.498 0.064 53.768 0.03 L 54.026 0.03 C 55.7 0.051 57.838 0.51 59.14 1.759 C 60.831 3.339 60.667 5.445 60.667 7.74 L 60.667 13.153 C 60.667 14.782 61.344 15.496 61.979 16.373 C 62.202 16.69 62.251 17.065 61.968 17.297 C 61.258 17.892 59.997 18.987 59.304 19.605 L 59.294 19.597 Z  M 55.792 11.125 C 55.792 12.479 55.824 13.607 55.142 14.811 C 54.589 15.788 53.711 16.39 52.736 16.39 C 51.404 16.39 50.624 15.375 50.624 13.87 C 50.624 10.91 53.278 10.372 55.792 10.372 L 55.792 11.125 Z " fill-rule="evenodd" />
<path d=" M 13.743 19.597 C 13.513 19.803 13.181 19.817 12.922 19.678 C 11.767 18.719 11.56 18.276 10.93 17.362 C 9.022 19.305 7.672 19.888 5.201 19.888 C 2.276 19.888 0 18.082 0 14.472 C 0 11.651 1.527 9.733 3.706 8.793 C 5.591 7.965 8.224 7.815 10.239 7.589 L 10.239 7.138 C 10.239 6.309 10.305 5.333 9.817 4.618 C 9.394 3.978 8.581 3.715 7.867 3.715 C 6.541 3.715 5.362 4.394 5.074 5.801 C 5.014 6.114 4.785 6.425 4.47 6.441 L 1.102 6.076 C 0.817 6.011 0.501 5.783 0.583 5.349 C 1.346 1.32 4.945 0.064 8.216 0.03 L 8.474 0.03 C 10.148 0.051 12.286 0.51 13.588 1.759 C 15.278 3.339 15.115 5.445 15.115 7.74 L 15.115 13.153 C 15.115 14.782 15.792 15.496 16.427 16.373 C 16.648 16.69 16.699 17.065 16.416 17.297 C 15.706 17.892 14.444 18.987 13.751 19.605 L 13.743 19.597 Z  M 10.239 11.125 C 10.239 12.479 10.272 13.607 9.589 14.811 C 9.037 15.788 8.159 16.39 7.183 16.39 C 5.851 16.39 5.071 15.375 5.071 13.87 C 5.071 10.91 7.726 10.372 10.239 10.372 L 10.239 11.125 Z " fill-rule="evenodd" />
<path d=" M 159.773 26.039 C 159.773 25.587 159.773 25.181 159.773 24.729 C 159.773 24.356 159.956 24.099 160.345 24.122 C 161.071 24.225 162.098 24.328 162.827 24.178 C 163.779 23.98 164.462 23.305 164.866 22.38 C 165.435 21.078 165.812 20.028 166.05 19.339 L 158.821 1.431 C 158.699 1.127 158.663 0.563 159.27 0.563 L 161.797 0.563 C 162.279 0.563 162.475 0.869 162.583 1.169 L 167.824 15.715 L 172.827 1.169 C 172.929 0.871 173.134 0.563 173.612 0.563 L 175.995 0.563 C 176.598 0.563 176.564 1.126 176.444 1.431 L 169.273 19.898 C 168.345 22.356 167.109 26.271 164.325 26.951 C 162.929 27.316 161.168 27.184 160.134 26.751 C 159.873 26.62 159.773 26.27 159.773 26.039 Z " fill-rule="evenodd" />
<path d=" M 156.402 18.55 C 156.402 18.883 156.129 19.156 155.794 19.156 L 154.012 19.156 C 153.627 19.156 153.364 18.878 153.315 18.55 L 153.136 17.337 C 152.317 18.03 151.312 18.639 150.222 19.063 C 148.126 19.877 145.71 20.012 143.662 18.754 C 142.181 17.845 141.395 16.068 141.395 14.235 C 141.395 12.817 141.832 11.411 142.801 10.39 C 144.094 8.995 145.968 8.31 148.231 8.31 C 149.598 8.31 151.554 8.471 152.977 8.936 L 152.977 6.495 C 152.977 4.013 151.932 2.939 149.177 2.939 C 147.071 2.939 145.46 3.257 143.218 3.954 C 142.859 3.966 142.649 3.693 142.649 3.36 L 142.649 1.968 C 142.649 1.634 142.934 1.311 143.243 1.213 C 144.844 0.515 147.112 0.08 149.523 0 C 152.666 0 156.402 0.709 156.402 5.543 L 156.402 18.55 Z  M 152.977 14.986 L 152.977 11.303 C 151.781 10.976 149.802 10.84 149.036 10.84 C 147.826 10.84 146.501 11.126 145.809 11.871 C 145.292 12.417 145.058 13.201 145.058 13.959 C 145.058 14.939 145.397 15.922 146.189 16.408 C 147.109 17.033 148.536 16.957 149.877 16.576 C 151.166 16.21 152.376 15.563 152.977 14.986 Z " fill-rule="evenodd" />
<path d=" M 130.127 2.994 C 134.081 2.994 135.158 6.103 135.158 9.663 C 135.18 12.063 134.739 14.203 133.496 15.428 C 132.566 16.345 131.527 16.595 129.963 16.595 C 128.571 16.595 126.74 15.869 125.372 14.858 L 125.372 4.679 C 126.796 3.585 128.613 2.994 130.127 2.994 Z  M 124.766 26.678 L 122.379 26.678 C 122.045 26.678 121.772 26.405 121.772 26.072 C 121.772 17.782 121.772 9.491 121.772 1.201 C 121.772 0.868 122.045 0.595 122.379 0.595 L 124.206 0.595 C 124.59 0.595 124.853 0.873 124.902 1.201 L 125.094 2.504 C 126.805 0.985 129.008 0.011 131.107 0.011 C 136.986 0.011 138.919 4.855 138.919 9.892 C 138.919 15.281 135.962 19.611 130.961 19.611 C 128.855 19.611 126.886 18.834 125.372 17.484 L 125.372 26.072 C 125.372 26.405 125.099 26.678 124.766 26.678 Z " fill-rule="evenodd" /></svg>

<svg viewBox="0 0 176.51 33.86" xmlns="http://www.w3.org/2000/svg"><g fill-rule="evenodd"><path d="m69.65 26.49c-6.52 4.81-15.98 7.37-24.12 7.37-11.41 0-21.69-4.22-29.47-11.24-.61-.55-.07-1.31.67-.88 8.39 4.88 18.77 7.82 29.49 7.82 7.23 0 15.18-1.5 22.49-4.6 1.1-.47 2.03.73.95 1.52z"/><path d="m72.37 23.39c-.83-1.07-5.51-.51-7.62-.25-.64.08-.74-.48-.16-.88 3.73-2.62 9.85-1.87 10.56-.99.72.89-.19 7.02-3.69 9.95-.54.45-1.05.21-.81-.38.79-1.97 2.55-6.37 1.71-7.44z"/><path d="m64.9 3.72v-2.54c0-.39.29-.65.65-.64h11.42c.37 0 .66.26.66.64v2.19c0 .37-.31.85-.86 1.6l-5.92 8.45c2.2-.05 4.52.28 6.51 1.4.45.25.57.63.61.99v2.72c0 .38-.41.81-.84.58-3.51-1.84-8.18-2.04-12.07.02-.4.21-.81-.22-.81-.59v-2.59c0-.41 0-1.12.42-1.75l6.85-9.83h-5.97c-.36 0-.66-.26-.66-.64z"/><path d="m23.23 19.64h-3.48c-.33-.02-.59-.27-.62-.59v-17.83c0-.36.3-.64.67-.64h3.24c.34.02.61.27.63.6v2.33h.07c.84-2.25 2.43-3.3 4.57-3.3s3.54 1.05 4.51 3.3c.84-2.25 2.76-3.3 4.8-3.3 1.46 0 3.05.6 4.02 1.95 1.1 1.5.88 3.68.88 5.59v11.26c0 .35-.3.64-.67.64h-3.47c-.35-.02-.62-.3-.62-.64v-9.45c0-.75.06-2.63-.1-3.34-.26-1.2-1.04-1.54-2.04-1.54-.84 0-1.72.56-2.08 1.46s-.32 2.4-.32 3.42v9.45c0 .35-.3.64-.67.64h-3.47c-.35-.02-.62-.3-.62-.64v-9.45c0-1.99.32-4.91-2.14-4.91s-2.4 2.85-2.4 4.91v9.45c0 .35-.3.64-.67.64z"/><path d="m87.49 3.84c-2.56 0-2.72 3.49-2.72 5.67s-.03 6.83 2.69 6.83 2.82-3.75 2.82-6.04c0-1.5-.07-3.3-.52-4.73-.39-1.24-1.17-1.73-2.27-1.73zm-.03-3.64c5.16 0 7.95 4.43 7.95 10.06s-3.08 9.76-7.95 9.76-7.82-4.43-7.82-9.95 2.79-9.87 7.82-9.87z"/><path d="m102.09 19.64h-3.46c-.35-.02-.62-.3-.62-.64v-17.84c.02-.33.31-.58.66-.58h3.22c.3.01.55.22.62.5v2.73h.06c.97-2.44 2.33-3.6 4.74-3.6 1.56 0 3.08.56 4.06 2.1.91 1.43.91 3.83.91 5.55v11.22c-.04.32-.32.56-.67.56h-3.48c-.32-.02-.58-.26-.62-.56v-9.68c0-1.95.23-4.81-2.17-4.81-.84 0-1.62.56-2.01 1.43-.49 1.09-.55 2.18-.55 3.38v9.6c0 .35-.31.64-.68.64z"/><path d="m59.29 19.6c-.23.21-.56.22-.82.08-1.15-.96-1.36-1.4-1.99-2.32-1.91 1.94-3.26 2.53-5.73 2.53-2.92 0-5.2-1.81-5.2-5.42 0-2.82 1.53-4.74 3.71-5.68 1.89-.83 4.52-.98 6.53-1.2v-.45c0-.83.06-1.8-.42-2.52-.42-.64-1.24-.9-1.95-.9-1.33 0-2.5.68-2.79 2.09-.06.31-.29.62-.6.64l-3.37-.36c-.28-.07-.6-.29-.52-.73.76-4.04 4.36-5.3 7.63-5.33h.26c1.67.02 3.81.48 5.11 1.73 1.69 1.58 1.53 3.69 1.53 5.98v5.41c0 1.63.68 2.34 1.31 3.22.22.32.27.69-.01.92-.71.59-1.97 1.69-2.66 2.31h-.01zm-3.5-8.47c0 1.35.03 2.48-.65 3.69-.55.98-1.43 1.58-2.41 1.58-1.33 0-2.11-1.01-2.11-2.52 0-2.96 2.65-3.5 5.17-3.5z"/><path d="m13.74 19.6c-.23.21-.56.22-.82.08-1.15-.96-1.36-1.4-1.99-2.32-1.91 1.94-3.26 2.53-5.73 2.53-2.93 0-5.2-1.81-5.2-5.42 0-2.82 1.53-4.74 3.71-5.68 1.88-.83 4.52-.98 6.53-1.2v-.45c0-.83.07-1.8-.42-2.52-.42-.64-1.24-.9-1.95-.9-1.33 0-2.51.68-2.79 2.09-.06.31-.29.62-.6.64l-3.37-.36c-.29-.07-.6-.29-.52-.73.76-4.04 4.36-5.3 7.63-5.33h.26c1.67.02 3.81.48 5.11 1.73 1.69 1.58 1.53 3.69 1.53 5.98v5.41c0 1.63.68 2.34 1.31 3.22.22.32.27.69-.01.92-.71.59-1.97 1.69-2.66 2.31zm-3.5-8.47c0 1.35.03 2.48-.65 3.69-.55.98-1.43 1.58-2.41 1.58-1.33 0-2.11-1.01-2.11-2.52 0-2.96 2.65-3.5 5.17-3.5z"/><path d="m159.77 26.04v-1.31c0-.37.18-.63.57-.61.73.1 1.75.21 2.48.06.95-.2 1.64-.87 2.04-1.8.57-1.3.95-2.35 1.18-3.04l-7.23-17.91c-.12-.3-.16-.87.45-.87h2.53c.48 0 .68.31.79.61l5.24 14.55 5-14.55c.1-.3.31-.61.79-.61h2.38c.6 0 .57.56.45.87l-7.17 18.47c-.93 2.46-2.16 6.37-4.95 7.05-1.4.36-3.16.23-4.19-.2-.26-.13-.36-.48-.36-.71z"/><path d="m156.4 18.55c0 .33-.27.61-.61.61h-1.78c-.38 0-.65-.28-.7-.61l-.18-1.21c-.82.69-1.82 1.3-2.91 1.73-2.1.81-4.51.95-6.56-.31-1.48-.91-2.27-2.69-2.27-4.52 0-1.42.44-2.82 1.41-3.84 1.29-1.4 3.17-2.08 5.43-2.08 1.37 0 3.32.16 4.75.63v-2.44c0-2.48-1.04-3.56-3.8-3.56-2.11 0-3.72.32-5.96 1.02-.36.01-.57-.26-.57-.59v-1.39c0-.33.29-.66.59-.75 1.6-.7 3.87-1.13 6.28-1.21 3.14 0 6.88.71 6.88 5.54v13.01zm-3.42-3.56v-3.68c-1.2-.33-3.18-.46-3.94-.46-1.21 0-2.53.29-3.23 1.03-.52.55-.75 1.33-.75 2.09 0 .98.34 1.96 1.13 2.45.92.62 2.35.55 3.69.17 1.29-.37 2.5-1.01 3.1-1.59z"/><path d="m130.13 2.99c3.95 0 5.03 3.11 5.03 6.67.02 2.4-.42 4.54-1.66 5.77-.93.92-1.97 1.17-3.53 1.17-1.39 0-3.22-.73-4.59-1.74v-10.18c1.42-1.09 3.24-1.68 4.75-1.68zm-5.36 23.68h-2.39c-.33 0-.61-.27-.61-.61v-24.86c0-.33.27-.61.61-.61h1.83c.38 0 .65.28.7.61l.19 1.3c1.71-1.52 3.91-2.49 6.01-2.49 5.88 0 7.81 4.84 7.81 9.88 0 5.39-2.96 9.72-7.96 9.72-2.11 0-4.07-.78-5.59-2.13v8.59c0 .33-.27.61-.61.61z"/></g></svg>
